X:1
T: Miss Steel of Norwich's Reel
C:R. Mackintosh
R:Reel
Q: 232
K:Gm
M:4/4
L:1/8
|:d|BG Bd ec fe|dB d=e fc AF|GB AD EG FB,|CE D^F GG, G,d|
BG Bd ec fe|dB d=e fc AF|GB AD EG FB,|CE D^F GG, G,g|
bg a^f g2 d=e|fd cB Ac fA|Bd gd ce ge|dg ^fa g1/2g1/2g g3/2f1/2|
gb ad eg fB|ce dG ^FG AD|GB Ac Bd ce|dc BA BG G:|
